X: 1109
T:Apples in Winter (A50)
N: page A50
N: heptatonic
S:Trad, arr. Paddy O'Brien
R:jig
E:9
I:speed 350
M:6/8
K:Edor
G/2A/2|"Em"BEE dEE|BAG FGE|"D"~D2D FDF|"A"ABc "D"ded|
"Em"BEE "Bm"BAB|"D"def "Em"~g2 e|"D"fdB "A"AGF|"Em"GEE E2:| d|efe edB|
ege "D"fdB|"A"dec "D"dAF|DFA def|1 "Em"efe edB|"D"def "Em"~g2a|
bgb "A"afa|"Em"gee e2:|2\
"D"edB def|"Em"gba ~g2e|"D"fdB "A"AGF|"Em"GEE E2||
